X: 22943
T: Larry The Beer Drinker
R: jig
M: 6/8
K: Dmajor
|:DFF FEF|AFE F2 E|DFF FEF|AFE E2F|
DFF FEF|AFA d2 d|cBA BAd|1 AFE E2 F:|2 AFE E2 f||
|:ecA ABA|ecA A2 f|ecA Ace|fdB B2 f|
ecB c2 B|Ace a2 a|fec BcB|1 AFE E2 f:|2 AFE E2 c||
|:dAF FEF|AFE F3|dAF FEB|AFE EFA|
dAF FEF|DFA d2 d|cBA BAF|1 AFE E2 c:|2 AFE E2 F||

